X:235
T: Stony Steps
S: "Ceol Rince na hEireann" 1/149
Z: B.Black
N: Key signature [as printed in book] is incorrect.
L: 1/8
M: 4/4
R: reel
K: D
A2 AB AFdF|AFdf edBd|FAAA BAGF|GEAG FD D2|
A2 AB AFdF|AFdf edBd|FA A2 BAGF|GEAG FD D2||
fedc defg|afbf afeg|defc dBAF|GEAG FD D2|
(3gfe dc defg|a2 bf afeg|fded fded|faag fedB||
